X:14546
T:Rose Tree, The
C:trad.
I:speed 400
M:4/4
K:G
|:BA | G2E2 D2B,2 | D3E D2D2 | G2G2 A2GA |  B2A2 A2BA |
 G2E2 D2B,2 | D3E D2D2 | G2G2 A2GA | [2 B2G2 G2 :|[2 B2G2 G3A |
|:B2A2 B2c2 | d4 c2B2 | A2e2 e3d | e2A2 A2 BA |
 G2E2 D2B,2 | D3E D2D2 | G2G2 A2GA | [2 B2G2 G3A :| [2 B2G2 G2|
